src/lib/packages/icons/src/assets/filled/bolt-circle.svg

<svg xmlns="http://www.w3.org/2000/svg" width="24" height="24" fill="none"><path fill="currentColor" d="M12 2C6.477 2 2 6.477 2 12s4.477 10 10 10 10-4.477 10-10S17.523 2 12 2Zm3.487 9.21L9.198 17.5l1.763-5.136a.275.275 0 0 0-.26-.364H8.946a.611.611 0 0 1-.58-.804L9.96 7.127c.125-.374.424-.627.819-.627h2.737c.439 0 .735.45.561.853l-1.049 2.429a.275.275 0 0 0 .253.384h1.774a.612.612 0 0 1 .432 1.044Z"/></svg>

<svg width="24" height="24" viewBox="0 0 24 24" fill="none" xmlns="http://www.w3.org/2000/svg">
<path d="M12 2C6.477 2 2 6.477 2 12C2 17.523 6.477 22 12 22C17.523 22 22 17.523 22 12C22 6.477 17.523 2 12 2ZM15.487 11.21L9.198 17.5L10.961 12.364C11.022 12.186 10.89 12 10.701 12H8.94598C8.52898 12 8.23403 11.591 8.36603 11.196L9.96002 7.127C10.085 6.753 10.384 6.5 10.779 6.5H13.516C13.955 6.5 14.251 6.95 14.077 7.353L13.028 9.782C12.95 9.964 13.083 10.166 13.281 10.166H15.055C15.599 10.167 15.871 10.825 15.487 11.21Z" fill="currentColor"/>
</svg>
